X:18637
T:Wheeler's Hornpipe
S:irtrad-l, Dan Mozell, 4/95
C:M. Higgins 1829
O:USA
L:1/16
M:2/4
K:D
AG | FAd2 dfed | ceg2 g2ba | gfed cAec |
dfed cBAG | FA d2 dfed | ceg2 g2ba |
gfed cABc | d2d2d2 :||: cd | edcB Aceg |
gfaf d2f2 | gfba gfed | edcB A2G2 | FAdf GBeg |
Adfa Bdgb | afbg fedc | d2d2d2 :|


